assets/build/gfx/icons/instagram.svg

<svg width="60" height="61" viewBox="0 0 60 61" fill="none" xmlns="http://www.w3.org/2000/svg">
<path d="M30.0169 5.40679C38.037 5.40679 38.9863 5.44244 42.14 5.58314C45.0722 5.71259 46.6537 6.20411 47.71 6.61497C49.1057 7.15527 50.1132 7.81189 51.1563 8.85498C52.2125 9.9112 52.856 10.9074 53.4075 12.3032C53.8184 13.3594 54.3099 14.9522 54.4394 17.8732C54.5801 21.04 54.6157 21.9892 54.6157 29.9981C54.6157 38.007 54.5801 38.9675 54.4394 42.1231C54.3099 45.0553 53.8184 46.6369 53.4075 47.6931C52.8672 49.0889 52.2125 50.0963 51.1675 51.1394C50.1113 52.1956 49.1151 52.8391 47.7212 53.3907C46.665 53.8015 45.0704 54.293 42.1512 54.4225C38.9844 54.5632 38.0351 54.5988 30.0263 54.5988C22.0174 54.5988 21.0568 54.5632 17.9013 54.4225C14.969 54.293 13.3875 53.8015 12.3313 53.3907C10.9355 52.8504 9.92808 52.1956 8.88312 51.1506C7.8269 50.0944 7.18342 49.0982 6.63186 47.7043C6.221 46.6481 5.72947 45.0535 5.60002 42.1343C5.45932 38.9675 5.42368 38.0183 5.42368 30.0094C5.42368 22.0005 5.45932 21.04 5.60002 17.8844C5.72947 14.9522 6.221 13.3706 6.63186 12.3144C7.17216 10.9186 7.82878 9.9112 8.87187 8.86624C9.92808 7.81002 10.9243 7.16653 12.3201 6.61497C13.3763 6.20411 14.969 5.71259 17.8901 5.58314C21.0437 5.44244 21.9949 5.40679 30.015 5.40679H30.0169ZM30.0169 0.00187606C21.8673 0.00187606 20.8486 0.0375211 17.6462 0.178225C14.4569 0.318929 12.2638 0.834845 10.3652 1.57401C8.38409 2.34695 6.7069 3.36752 5.04284 5.04471C3.36564 6.71065 2.34507 8.38597 1.57213 10.3558C0.832969 12.2675 0.317053 14.4475 0.176349 17.6368C0.035645 20.8505 0 21.8692 0 30.0188C0 38.1683 0.035645 39.187 0.176349 42.3895C0.317053 45.5788 0.832969 47.7719 1.57213 49.6704C2.34695 51.6516 3.36564 53.3287 5.04284 54.9928C6.7069 56.6569 8.38409 57.6906 10.3539 58.4523C12.2656 59.1914 14.4456 59.7073 17.6349 59.848C20.8355 59.9887 21.856 60.0244 30.0056 60.0244C38.1552 60.0244 39.1758 59.9887 42.3763 59.848C45.5656 59.7073 47.7587 59.1914 49.6573 58.4523C51.6272 57.6906 53.3044 56.6587 54.9684 54.9928C56.6325 53.3269 57.6662 51.6516 58.4279 49.6817C59.167 47.77 59.6829 45.59 59.8237 42.4007C59.9644 39.2002 60 38.1796 60 30.03C60 21.8804 59.9644 20.8617 59.8237 17.6593C59.6829 14.47 59.167 12.2769 58.4279 10.3783C57.6887 8.38409 56.6681 6.70877 54.9928 5.04284C53.3287 3.37878 51.6516 2.34507 49.6817 1.58339C47.77 0.844225 45.59 0.32831 42.4007 0.187606C39.1889 0.0356451 38.1683 0 30.0188 0L30.0169 0.00187606Z" fill="white"/>
<path d="M30.0169 14.5994C21.5052 14.5994 14.5976 21.5052 14.5976 30.0187C14.5976 38.5323 21.5034 45.438 30.0169 45.438C38.5304 45.438 45.4362 38.5323 45.4362 30.0187C45.4362 21.5071 38.5304 14.5994 30.0169 14.5994V14.5994ZM30.0169 40.02C24.4938 40.02 20.0156 35.5418 20.0156 30.0187C20.0156 24.4956 24.4938 20.0175 30.0169 20.0175C35.54 20.0175 40.0181 24.4956 40.0181 30.0187C40.0181 35.5418 35.54 40.02 30.0169 40.02Z" fill="white"/>
<path d="M49.6442 13.9898C49.6442 15.9784 48.0327 17.5899 46.0441 17.5899C44.0554 17.5899 42.4439 15.9784 42.4439 13.9898C42.4439 12.0012 44.0554 10.3896 46.0441 10.3896C48.0327 10.3896 49.6442 12.0012 49.6442 13.9898V13.9898Z" fill="white"/>
</svg>

<svg width="60" height="61" fill="none" xmlns="http://www.w3.org/2000/svg"><path d="M30.017 5.407c8.02 0 8.97.035 12.123.176 2.932.13 4.514.621 5.57 1.032 1.396.54 2.403 1.197 3.446 2.24 1.056 1.056 1.7 2.052 2.252 3.448.41 1.056.902 2.65 1.031 5.57.141 3.167.177 4.116.177 12.125s-.036 8.97-.177 12.125c-.13 2.932-.62 4.514-1.032 5.57-.54 1.396-1.194 2.403-2.24 3.446-1.056 1.057-2.052 1.7-3.446 2.252-1.056.41-2.65.902-5.57 1.032-3.167.14-4.116.176-12.125.176s-8.97-.036-12.125-.176c-2.932-.13-4.514-.622-5.57-1.032-1.396-.54-2.403-1.195-3.448-2.24-1.056-1.057-1.7-2.053-2.251-3.447-.411-1.056-.903-2.65-1.032-5.57-.14-3.166-.176-4.116-.176-12.125s.035-8.969.176-12.125c.13-2.932.621-4.513 1.032-5.57.54-1.395 1.197-2.403 2.24-3.448 1.056-1.056 2.052-1.7 3.448-2.251 1.056-.41 2.649-.902 5.57-1.032 3.154-.14 4.105-.176 12.125-.176h.002zm0-5.405c-8.15 0-9.168.036-12.37.176-3.19.14-5.383.657-7.282 1.396-1.98.773-3.658 1.794-5.322 3.47-1.677 1.667-2.698 3.342-3.47 5.312-.74 1.912-1.256 4.091-1.397 7.28C.036 20.852 0 21.87 0 30.02s.036 9.168.176 12.37c.141 3.19.657 5.383 1.396 7.281.775 1.982 1.794 3.659 3.47 5.323 1.665 1.664 3.342 2.698 5.312 3.46 1.912.738 4.092 1.254 7.28 1.395 3.201.14 4.222.176 12.372.176 8.15 0 9.17-.035 12.37-.176 3.19-.14 5.383-.657 7.281-1.396 1.97-.761 3.647-1.793 5.311-3.46 1.664-1.665 2.698-3.34 3.46-5.31.739-1.912 1.255-4.092 1.396-7.281.14-3.2.176-4.221.176-12.371s-.036-9.168-.176-12.37c-.141-3.19-.657-5.383-1.396-7.282-.74-1.994-1.76-3.67-3.435-5.335-1.664-1.664-3.341-2.698-5.311-3.46C47.77.844 45.59.328 42.4.188 39.189.036 38.168 0 30.019 0l-.002.002z" fill="#fff"/><path d="M30.017 14.6c-8.512 0-15.42 6.905-15.42 15.419 0 8.513 6.906 15.419 15.42 15.419 8.513 0 15.42-6.906 15.42-15.42 0-8.51-6.907-15.419-15.42-15.419zm0 25.42c-5.523 0-10.001-4.478-10.001-10.001s4.478-10.002 10-10.002c5.524 0 10.002 4.479 10.002 10.002 0 5.523-4.478 10.001-10.001 10.001zm19.627-26.03a3.6 3.6 0 1 1-7.2 0 3.6 3.6 0 0 1 7.2 0z" fill="#fff"/></svg>
